icons/maia/apps/scalable/fillets-ng.svg

<svg xmlns="http://www.w3.org/2000/svg" viewBox="0 0 48 48">
 <defs>
  <linearGradient id="linearGradient3864" y1="47" x2="0" y2="1" gradientUnits="userSpaceOnUse">
   <stop style="stop-color:#eaeaea;stop-opacity:1"/>
   <stop offset="1" style="stop-color:#f4f4f4;stop-opacity:1"/>
  </linearGradient>
 </defs>
 <g>
  <path d="m 36.31 5 c 5.859 4.062 9.688 10.831 9.688 18.5 c 0 12.426 -10.07 22.5 -22.5 22.5 c -7.669 0 -14.438 -3.828 -18.5 -9.688 c 1.037 1.822 2.306 3.499 3.781 4.969 c 4.085 3.712 9.514 5.969 15.469 5.969 c 12.703 0 23 -10.298 23 -23 c 0 -5.954 -2.256 -11.384 -5.969 -15.469 c -1.469 -1.475 -3.147 -2.744 -4.969 -3.781 z m 4.969 3.781 c 3.854 4.113 6.219 9.637 6.219 15.719 c 0 12.703 -10.297 23 -23 23 c -6.081 0 -11.606 -2.364 -15.719 -6.219 c 4.16 4.144 9.883 6.719 16.219 6.719 c 12.703 0 23 -10.298 23 -23 c 0 -6.335 -2.575 -12.06 -6.719 -16.219 z" style="opacity:0.05"/>
  <path d="m 41.28 8.781 c 3.712 4.085 5.969 9.514 5.969 15.469 c 0 12.703 -10.297 23 -23 23 c -5.954 0 -11.384 -2.256 -15.469 -5.969 c 4.113 3.854 9.637 6.219 15.719 6.219 c 12.703 0 23 -10.298 23 -23 c 0 -6.081 -2.364 -11.606 -6.219 -15.719 z" style="opacity:0.1"/>
  <path d="m 31.25 2.375 c 8.615 3.154 14.75 11.417 14.75 21.13 c 0 12.426 -10.07 22.5 -22.5 22.5 c -9.708 0 -17.971 -6.135 -21.12 -14.75 a 23 23 0 0 0 44.875 -7 a 23 23 0 0 0 -16 -21.875 z" style="opacity:0.2"/>
 </g>
 <g>
  <path d="m 24 1 c 12.703 0 23 10.297 23 23 c 0 12.703 -10.297 23 -23 23 -12.703 0 -23 -10.297 -23 -23 0 -12.703 10.297 -23 23 -23 z" style="fill:url(#linearGradient3864);fill-opacity:1"/>
 </g>
 <g>
  <path d="m 40.03 7.531 c 3.712 4.084 5.969 9.514 5.969 15.469 0 12.703 -10.297 23 -23 23 c -5.954 0 -11.384 -2.256 -15.469 -5.969 4.178 4.291 10.01 6.969 16.469 6.969 c 12.703 0 23 -10.298 23 -23 0 -6.462 -2.677 -12.291 -6.969 -16.469 z" style="opacity:0.1"/>
 </g>
 <path d="M 25 10 A 15 15 0 0 0 10 25 15 15 0 0 0 25 40 15 15 0 0 0 40 25 15 15 0 0 0 25 10 M 25 12 A 13 13 0 0 1 38 25 13 13 0 0 1 25 38 13 13 0 0 1 12 25 13 13 0 0 1 25 12 m 8.975 7 a 0.997 0.997 0 0 0 -0.676 0.291 c -1.361 1.36 -3.078 2.928 -4.842 4.4 C 26.81 22.347 25.23 21.08 23.496 20.21 22.528 19.723 21.676 19.35 20.824 19.16 19.972 18.974 19.09 19 18.277 19.344 16.706 20.01 14.999 21.866 15 24.973 c 0 3.106 1.706 4.968 3.275 5.637 0.812 0.346 1.694 0.377 2.547 0.193 0.853 -0.184 1.706 -0.556 2.674 -1.039 1.731 -0.864 3.312 -2.126 4.959 -3.469 1.765 1.477 3.483 3.05 4.844 4.41 A 0.997 0.997 0 0 0 35 30 l 0 -10 a 0.997 0.997 0 0 0 -1.025 -0.996 z m -14.311 2.029 c 0.214 -0.012 0.45 0.014 0.732 0.076 0.566 0.125 1.295 0.426 2.203 0.883 1.325 0.666 2.728 1.844 4.164 3 -1.434 1.152 -2.835 2.324 -4.158 2.984 -0.907 0.453 -1.638 0.753 -2.203 0.875 -0.565 0.122 -0.936 0.094 -1.344 -0.08 -0.869 -0.37 -2.064 -1.393 -2.064 -3.801 0 -2.407 1.193 -3.428 2.059 -3.793 0.203 -0.086 0.397 -0.135 0.611 -0.146 z m 13.342 1.219 0 5.494 c -0.964 -0.914 -1.921 -1.82 -3.02 -2.75 1.098 -0.928 2.056 -1.831 3.02 -2.744 z M 20 22.5 a 1 1 0 0 0 -1 1 1 1 0 0 0 1 1 1 1 0 0 0 1 -1 1 1 0 0 0 -1 -1 z" mix-blend-mode="normal" isolation="auto" white-space="normal" solid-color="#000000" solid-opacity="1" style="visibility:visible;shape-rendering:auto;color-interpolation-filters:linearRGB;fill:#000;opacity:1;image-rendering:auto;fill-opacity:0.098;stroke:none;display:inline;color:#000;fill-rule:evenodd;color-rendering:auto;color-interpolation:sRGB"/>
 <path d="M 24 9 A 15 15 0 0 0 9 24 15 15 0 0 0 24 39 15 15 0 0 0 39 24 15 15 0 0 0 24 9 M 24 11 A 13 13 0 0 1 37 24 13 13 0 0 1 24 37 13 13 0 0 1 11 24 13 13 0 0 1 24 11 m 8.975 7 A 0.997 0.997 0 0 0 32.3 18.295 c -1.362 1.36 -3.08 2.925 -4.843 4.4 C 25.81 21.347 24.23 20.08 22.496 19.21 21.528 18.723 20.676 18.35 19.824 18.16 18.972 17.974 18.09 18 17.277 18.344 15.706 19.01 13.999 20.866 14 23.973 c 0 3.107 1.706 4.968 3.275 5.636 0.815 0.346 1.694 0.378 2.547 0.194 0.853 -0.184 1.706 -0.553 2.674 -1.039 1.734 -0.864 3.312 -2.126 4.959 -3.469 1.765 1.477 3.483 3.05 4.845 4.41 A 0.997 0.997 0 0 0 34 29 l 0 -10 a 0.997 0.997 0 0 0 -1.025 -1 z m -14.311 2.03 c 0.215 -0.01 0.446 0.02 0.732 0.08 0.566 0.124 1.296 0.426 2.204 0.882 1.325 0.666 2.728 1.844 4.164 3 -1.434 1.156 -2.835 2.324 -4.159 2.985 -0.907 0.452 -1.637 0.753 -2.203 0.875 -0.565 0.121 -0.936 0.093 -1.342 -0.081 -0.871 -0.37 -2.065 -1.393 -2.066 -3.8 -0.001 -2.408 1.196 -3.428 2.056 -3.793 0.206 -0.09 0.4 -0.14 0.614 -0.15 z m 13.346 1.222 0 5.494 C 31.04 25.832 30.09 24.926 28.986 23.996 30.08 23.07 31.04 22.17 32.01 21.252 M 19 21.5 a 1 1 0 0 0 -1 1 1 1 0 0 0 1 1 1 1 0 0 0 1 -1 1 1 0 0 0 -1 -1 z" mix-blend-mode="normal" isolation="auto" white-space="normal" solid-color="#000000" solid-opacity="1" style="visibility:visible;shape-rendering:auto;color-interpolation-filters:linearRGB;fill:#efb811;opacity:1;image-rendering:auto;fill-opacity:1;stroke:none;display:inline;color:#000;fill-rule:evenodd;color-rendering:auto;color-interpolation:sRGB"/>
</svg>

<svg xmlns="http://www.w3.org/2000/svg" viewBox="0 0 48 48">
 <defs>
  <linearGradient id="linearGradient3764" x1="1" x2="47" gradientUnits="userSpaceOnUse" gradientTransform="matrix(0,-1,1,0,-1.5e-6,47.999998)">
   <stop style="stop-color:#efefef;stop-opacity:1"/>
   <stop offset="1" style="stop-color:#f9f9f9;stop-opacity:1"/>
  </linearGradient>
 </defs>
 <g>
  <path d="m 36.31 5 c 5.859 4.062 9.688 10.831 9.688 18.5 c 0 12.426 -10.07 22.5 -22.5 22.5 c -7.669 0 -14.438 -3.828 -18.5 -9.688 c 1.037 1.822 2.306 3.499 3.781 4.969 c 4.085 3.712 9.514 5.969 15.469 5.969 c 12.703 0 23 -10.298 23 -23 c 0 -5.954 -2.256 -11.384 -5.969 -15.469 c -1.469 -1.475 -3.147 -2.744 -4.969 -3.781 z m 4.969 3.781 c 3.854 4.113 6.219 9.637 6.219 15.719 c 0 12.703 -10.297 23 -23 23 c -6.081 0 -11.606 -2.364 -15.719 -6.219 c 4.16 4.144 9.883 6.719 16.219 6.719 c 12.703 0 23 -10.298 23 -23 c 0 -6.335 -2.575 -12.06 -6.719 -16.219 z" style="opacity:0.05"/>
  <path d="m 41.28 8.781 c 3.712 4.085 5.969 9.514 5.969 15.469 c 0 12.703 -10.297 23 -23 23 c -5.954 0 -11.384 -2.256 -15.469 -5.969 c 4.113 3.854 9.637 6.219 15.719 6.219 c 12.703 0 23 -10.298 23 -23 c 0 -6.081 -2.364 -11.606 -6.219 -15.719 z" style="opacity:0.1"/>
  <path d="m 31.25 2.375 c 8.615 3.154 14.75 11.417 14.75 21.13 c 0 12.426 -10.07 22.5 -22.5 22.5 c -9.708 0 -17.971 -6.135 -21.12 -14.75 a 23 23 0 0 0 44.875 -7 a 23 23 0 0 0 -16 -21.875 z" style="opacity:0.2"/>
 </g>
 <g>
  <path d="m 24 1 c 12.703 0 23 10.297 23 23 c 0 12.703 -10.297 23 -23 23 -12.703 0 -23 -10.297 -23 -23 0 -12.703 10.297 -23 23 -23 z" style="fill:url(#linearGradient3764);fill-opacity:1"/>
 </g>
 <g>
  <path d="m 40.03 7.531 c 3.712 4.084 5.969 9.514 5.969 15.469 0 12.703 -10.297 23 -23 23 c -5.954 0 -11.384 -2.256 -15.469 -5.969 4.178 4.291 10.01 6.969 16.469 6.969 c 12.703 0 23 -10.298 23 -23 0 -6.462 -2.677 -12.291 -6.969 -16.469 z" style="opacity:0.1"/>
 </g>
 <path d="M 25 10 A 15 15 0 0 0 10 25 15 15 0 0 0 25 40 15 15 0 0 0 40 25 15 15 0 0 0 25 10 m 0 2 A 13 13 0 0 1 38 25 13 13 0 0 1 25 38 13 13 0 0 1 12 25 13 13 0 0 1 25 12 m 8.975 7 a 0.997 0.997 0 0 0 -0.676 0.291 c -1.361 1.36 -3.078 2.928 -4.842 4.4 C 26.81 22.347 25.23 21.08 23.496 20.21 22.528 19.723 21.676 19.35 20.824 19.16 19.972 18.974 19.09 19 18.277 19.344 16.706 20.01 14.999 21.866 15 24.973 c 0 3.106 1.706 4.968 3.275 5.637 0.812 0.346 1.694 0.377 2.547 0.193 0.853 -0.184 1.706 -0.556 2.674 -1.039 1.731 -0.864 3.312 -2.126 4.959 -3.469 1.765 1.477 3.483 3.05 4.844 4.41 A 0.997 0.997 0 0 0 35 30 l 0 -10 a 0.997 0.997 0 0 0 -1.025 -0.996 z m -14.311 2.029 c 0.214 -0.012 0.45 0.014 0.732 0.076 0.566 0.125 1.295 0.426 2.203 0.883 1.325 0.666 2.728 1.844 4.164 3 -1.434 1.152 -2.835 2.324 -4.158 2.984 -0.907 0.453 -1.638 0.753 -2.203 0.875 -0.565 0.122 -0.936 0.094 -1.344 -0.08 -0.869 -0.37 -2.064 -1.393 -2.064 -3.801 0 -2.407 1.193 -3.428 2.059 -3.793 0.203 -0.086 0.397 -0.135 0.611 -0.146 z m 13.342 1.219 0 5.494 c -0.964 -0.914 -1.921 -1.82 -3.02 -2.75 1.098 -0.928 2.056 -1.831 3.02 -2.744 z M 20 22.5 a 1 1 0 0 0 -1 1 1 1 0 0 0 1 1 1 1 0 0 0 1 -1 1 1 0 0 0 -1 -1 z" mix-blend-mode="normal" isolation="auto" white-space="normal" solid-opacity="1" solid-color="#000000" style="visibility:visible;shape-rendering:auto;color-interpolation-filters:linearRGB;fill:#000;opacity:1;image-rendering:auto;fill-opacity:0.098;stroke:none;display:inline;color:#000;fill-rule:evenodd;color-rendering:auto;color-interpolation:sRGB"/>
 <path d="M 24 9 A 15 15 0 0 0 9 24 A 15 15 0 0 0 24 39 A 15 15 0 0 0 39 24 A 15 15 0 0 0 24 9 z M 24 11 A 13 13 0 0 1 37 24 A 13 13 0 0 1 24 37 A 13 13 0 0 1 11 24 A 13 13 0 0 1 24 11 z M 32.975 18 A 0.997 0.997 0 0 0 32.3 18.295 C 30.938 19.655 29.22 21.22 27.457 22.695 C 25.81 21.347 24.23 20.08 22.496 19.21 C 21.528 18.723 20.676 18.35 19.824 18.16 C 18.972 17.974 18.09 18 17.277 18.344 C 15.706 19.01 13.999 20.866 14 23.973 C 14 27.08 15.706 28.941 17.275 29.609 C 18.09 29.955 18.969 29.987 19.822 29.803 C 20.675 29.619 21.528 29.25 22.496 28.764 C 24.23 27.9 25.808 26.638 27.455 25.295 C 29.22 26.772 30.938 28.345 32.3 29.705 A 0.997 0.997 0 0 0 34 29 L 34 19 A 0.997 0.997 0 0 0 32.975 18 z M 18.664 20.03 C 18.879 20.02 19.11 20.05 19.396 20.11 C 19.962 20.234 20.692 20.536 21.6 20.992 C 22.925 21.658 24.328 22.836 25.764 23.994 C 24.33 25.15 22.929 26.318 21.605 26.979 C 20.698 27.431 19.968 27.732 19.402 27.854 C 18.837 27.975 18.466 27.947 18.06 27.773 C 17.189 27.403 15.995 26.38 15.994 23.973 C 15.993 21.565 17.19 20.545 18.05 20.18 C 18.256 20.09 18.45 20.04 18.664 20.03 z M 32.01 21.252 L 32.01 26.746 C 31.04 25.832 30.09 24.926 28.986 23.996 C 30.08 23.07 31.04 22.17 32.01 21.252 z M 19 21.5 A 1 1 0 0 0 18 22.5 A 1 1 0 0 0 19 23.5 A 1 1 0 0 0 20 22.5 A 1 1 0 0 0 19 21.5 z" mix-blend-mode="normal" isolation="auto" white-space="normal" solid-opacity="1" solid-color="#000000" style="visibility:visible;shape-rendering:auto;color-interpolation-filters:linearRGB;fill:#efb811;opacity:1;image-rendering:auto;fill-opacity:1;stroke:none;display:inline;color:#000;fill-rule:evenodd;color-rendering:auto;color-interpolation:sRGB"/>
</svg>
